X:1
T:Palestine Song
T:Palestine Song
T:Arranged from Alexander Zarnock
T:C. W. Ross, 1894
T:Public Domain Courtesy of the Cyber Hymnal™
T:Public Domain Courtesy of the Cyber Hymnal™
C:Arranged from Alexander Zarnock
Z:Public Domain
Z:Courtesy of the Cyber Hymnal™
%%score ( 1 2 ) ( 3 4 )
L:1/8
Q:1/4=92
M:3/4
K:G
V:1 treble 
V:2 treble 
V:3 bass 
V:4 bass 
V:1
 D2 | [DG]>[DG] [DG]2 [FA]2 | [GB]>[GB] [GB]4 | [FA]>[GB] [Ac]2 [DF]2 | [DA]>[DG] [DG]2 D2 | %5
w: 1.|First the line on|coast we make;|Me- rom next, a|marsh- y lake; ~|
w: 2.|Look- ing north- ward|you may view|Le- ba- non and|Her- mon, too; ~|
w: 3.~On|Zi- on stands Je-|ru- sa- lem;|Six miles south is|Beth- le- hem; On|
w: 4.|Ca- per- naum by|Ga- li- lee,|Near its twin Beth-|sai- da see; ~|
w: 5.~From|hea- then Tyre ma-|ter- ials came|To~build a tem- ple|to God’s name; The|
 [DG]>[DG] [DG]2 [FA]2 | [GB]>[GB] [GB]3 [GB] | [FA]>[GB] [Ac]2 [DF]2 | %8
w: Then the Sea of|Gal- i- lee, Ex-|act- ly west of|
w: Car- mel and Gil-|bo- a grim, ~|Ta- bor, E- bal,|
w: Ol- ive’s slopes is|Beth- a- ny, Beth-|ab- a- ra by|
w: Cæ- sa- re- a|Phil- lip- pi At|Her- mon’s base is|
w: sor- rowing wi- dow’s|son at Nain ~|Je- sus raised to|
 [DA]>[DG] [DG]2 z3/2 [Dd]/ | [Dd]>[DB] [De]3 [Dd] | [Fd]>[Fc] [Fc]3 [Fc] | [Fc]>[FA] [Fd]3 [Fc] | %12
w: Car- mel, see. The|Jor- dan riv- er|flows thro’ both ~|To the Dead Sea|
w: Ger- i- zim. ~|Near Je- ru- sa-|lem we see ~|Ol- iv- et and|
w: Jor- dan see. Our|Sav- ior drank at|Sy- char’s well; Of|boy- hood days let|
w: seen to lie; A-|long the coast these|three ap- pear, ~|Ga- za, Jop- pa,|
w: life a- gain. See|Dan, where Jor- dan’s|wa- ters rise, Beer-|she- ba near- er|
 [Ec]>[DB] [DB]2 D2 | [DG]>[DG] [DG]2 [FA]2 | [GB]>[GB] [GB]3 [GB] | [FA]>[GB] [Ac]2 [DF]2 | %16
w: on the south; ~|And the Great Sea|west- ward lies ~|Stretch- ing far as|
w: Cal- va- ry. Ju-|de- a’s hills rise|south and west Of|lone- ly Ne- bo’s|
w: Naz- areth tell; At|Ca- na wa- ter|turned to wine, ~|Showed our Lord to|
w: Cæ- sa- rea; ~|South to Beth- el|we may go, To|Heb- ron next and|
w: tro- pic skies; ~|North and south these|ci- ties stand, And|mark the length of|
 [DA]>[DG] [DG]4 |] %17
w: sun- set skies.|
w: low- ering crest.|
w: be di- vine.|
w: Jer- i- cho.|
w: Is- rael’s land.|
V:2
 D2 | x6 | x6 | x6 | x4 D2 | x6 | x6 | x6 | x6 | x6 | x6 | x6 | x4 D2 | x6 | x6 | x6 | x6 |] %17
V:3
 [G,B,]2 | [G,B,]>[G,B,] [G,B,]2 [D,D]2 | [G,D]>[G,D] [G,D]4 | [D,D]>[D,D] [D,D]2 [D,A,]2 | %4
 [G,C]>[G,B,] [G,B,]2 [G,B,]2 | [G,B,]>[G,B,] [G,B,]2 [D,D]2 | [G,D]>[G,D] [G,D]3 [G,D] | %7
 [D,D]>[D,D] [D,D]2 [D,A,]2 | [G,C]>[G,B,] [G,B,]2 z3/2 [G,B,]/ | [G,B,]>G, [G,C]3 [G,B,] | %10
 [D,B,]>[D,A,] [D,A,]3 [D,A,] | [D,A,]>[D,A,] [D,A,]3 [D,A,] | G,>G, G,2 [G,B,]2 | %13
 [G,B,]>[G,B,] [G,B,]2 [D,D]2 | [G,D]>[G,D] [G,D]3 [G,D] | [D,D]>[D,D] [D,D]2 [D,A,]2 | %16
 [G,C]>[G,B,] [G,B,]4 |] %17
V:4
 x2 | x6 | x6 | x6 | x6 | x6 | x6 | x6 | x6 | x3/2 G,/ x4 | x6 | x6 | G,>G, G,2 x2 | x6 | x6 | x6 | %16
 x6 |] %17

